svg/fluentui-system-icons/ic_fluent_arrow_circle_up_right_24_regular.svg

<svg width="24" height="24" viewBox="0 0 24 24" fill="none" xmlns="http://www.w3.org/2000/svg">
<path d="M13.4905 9.5H8.75C8.33579 9.5 8 9.16421 8 8.75C8 8.33579 8.33579 8 8.75 8H15.25C15.6642 8 16 8.33579 16 8.75V15.25C16 15.6642 15.6642 16 15.25 16C14.8358 16 14.5 15.6642 14.5 15.25V10.6114L9.2778 15.783C8.98349 16.0744 8.50862 16.0721 8.21715 15.7778C7.92569 15.4835 7.928 15.0086 8.22232 14.7172L13.4905 9.5ZM2 12C2 17.5228 6.47715 22 12 22C17.5228 22 22 17.5228 22 12C22 6.47715 17.5228 2 12 2C6.47715 2 2 6.47715 2 12ZM12 20.5C7.30558 20.5 3.5 16.6944 3.5 12C3.5 7.30558 7.30558 3.5 12 3.5C16.6944 3.5 20.5 7.30558 20.5 12C20.5 16.6944 16.6944 20.5 12 20.5Z" fill="#212121"/>
</svg>

<svg xmlns="http://www.w3.org/2000/svg" width="24" height="24"><path d="M13.49 9.5H8.75a.75.75 0 0 1 0-1.5h6.5a.75.75 0 0 1 .75.75v6.5a.75.75 0 0 1-1.5 0v-4.639l-5.222 5.172a.75.75 0 0 1-1.056-1.066L13.491 9.5ZM2 12c0 5.523 4.477 10 10 10s10-4.477 10-10S17.523 2 12 2 2 6.477 2 12Zm10 8.5a8.5 8.5 0 1 1 0-17 8.5 8.5 0 0 1 0 17Z"/></svg>
